X: 1142
T: İki Gözüm Sensiz Lûtfet de Söyle
C: Kemal Emin Bara
O: Turkey
F: http://compmusic.upf.edu/node/140
N: mahur--sarki--aksak--iki_gozum--kemal_emin_bara
N: makam= mahur
N: form= sarki
N: usul= aksak = 9/8
M: 9/8
L: 1/16
K: C ^9/8f   
Q: 1/4=252
%%MIDI tuningsystem comma53
g8 d8-d2 | B8G8-G2  | c'8 a8-a2 | d4e2 f2g2 f2g6  | \
w:  ARANAĞME  |   |   |   | 
d8 g8-g2 | c8e8-e2  | 
w:   |   | 
d2e2 =f2e2 d2c2 B2^3/4A2 c2 | B18  | \
w:   |   | 
d8 B8-B2 | c8A8-A2  | cBA2 B4 BAG2 A2G2 F2 | 
w:   |   |   | 
G6 d2e2 f2g6  | g8 d8-d2 | B8G8-G2  | c'8 a8-a2 | \
w:   |  ARANAĞME  |   |   | 
d4e2 f2g2 f2g6  | d8 g8-g2 | 
w:   |   | 
c8e8-e2  | d2e2 =f2e2 d2c2 B2^3/4A2 c2 | B18  | \
w:   |   |   | 
d8 B8-B2 | c8A8-A2  | cBA2 B4 BAG2 A2G2 F2 | 
w:   |   |   | 
G6 d2e2 f2g6  | g4 e2f2 g4 d6 | e3{e}de2 f2g2 {g}f2.g6  | \
w:   |  *  İ ki  gö züm   |  sen *  *  *  *  siz   | 
f2g2 a4 a4 g2^f2 e2 | 
w:  lûtf_ *  et  de  söy  | 
f2 e2f2 g2^f2 e2d4z2  | d4 e2^f2 d4 e4 ^9/8f2 | \
w:  le    |  lûtf_ et  *  de  söy  | 
g6 d2ed efg3def  | 
w:  le   SAZ  | 
g4 e2f2 g4 d6 | e3{e}de2 f2g2 {g}f2.g6  | \
w:  *  İ ki  gö züm   |  sen *  *  *  *  siz   | 
f2g2 a4 a4 g2^f2 e2 | f2 e2f2 g2^f2 e2d4z2  | 
w:  lûtf_ *  et  de  söy  |  le    | 
d4 e2^f2 d4 e4 ^9/8f2 | g6 d2ed efg3def  | \
w:  lûtf_ et  *  de  söy  |  le   SAZ  | 
g4 ^f2g2 a4 e6 | 
w:  *  Bu  u zun  ge  | 
{a}g2 =f2e2 d2d2 ed.c6  | B2c6 c4 c4 B2 | \
w:  *  ce *  *  *  ler   |  ge çer  mi  böy  | 
d3^3/4cd2 e2d2 c2_7/8B2 A2G2  | 
w:  le    | 
A4 _B2A2 G4 A2G2 F2 | G6 d2e2 {d}f2g3def  | \
w:  ge çer  *  mi  böy  |  le   SAZ  | 
g4 ^f2g2 a4 e6 | {a}g2 =f2e2 d2d2 ed.c6  | 
w:  *  Bu  u zun  ge  |  *  ce *  *  *  ler   | 
B2c6 c4 c4 B2 | d3^3/4cd2 e2d2 c2_7/8B2 A2G2  | \
w:  ge çer  mi  böy  |  le    | 
A4 _B2A2 G4 A2G2 F2 | 
w:  ge çer  *  mi  böy  | 
G6 b2d'c' b^3/4ab4ac'  | b4 ^3/4a2b2 b4 b6 | \
w:  le   SAZ  |  *  Ku ra lım  seh  | 
g2 f2e2 ^d2.e8z2  | B4 e4 f4 g2f2 e2 | 
w:  pa *  *  *  yı   |  baş ba şa  şöy  | 
b4{c'}b2 c'2b2 ^3/4a2b4a2  | a4 a2_7/8b2 b2a2 {b}a2g2 f2 | \
w:  le    |  baş ba *  şa  *  *  şöy  | 
g6 d2e2 {d}f2g3def  | 
w:  le   SAZ  | 
g4 ^f2g2 a4 e6 | {a}g2 =f2e2 d2d2 ed.c6  | \
w:  *  Bu  u zun  ge  |  *  ce *  *  *  ler   | 
B2c6 c4 c4 B2 | d3^3/4cd2 e2d2 c2_7/8B2 A2G2  | 
w:  ge çer  mi  böy  |  le    | 
A4 _B2A2 G4 A2G2 F2 | G6 d2e2 {d}f2g3def  | \
w:  ge çer  *  mi  böy  |  le   SAZ  | 
g4 ^f2g2 a4 e6 | {a}g2 =f2e2 d2d2 ed.c6  | 
w:  *  Bu  u zun  ge  |  *  ce *  *  *  ler   | 
B2c6 c4 c4 B2 | d3^3/4cd2 e2d2 c2_7/8B2 A2G2  | \
w:  ge çer  mi  böy  |  le    | 
A4 _B2A2 G4 A2G2 F2 | 
w:  ge çer  *  mi  böy  | 
G6 |
w:  le    | 


